lib/preview/nrk-logo-preview-nrk-p13-on-dark.svg

<svg width="63" height="14" viewBox="0 0 63 14" fill="none" xmlns="http://www.w3.org/2000/svg">
<path d="M0 13.0001V1.00121H3.93719V13.0001H0ZM9.29381 2.9109L11.5581 13.0001H7.24917L4.54549 1.00121H6.96218C7.51635 0.99402 8.05406 1.18937 8.4745 1.55051C8.89562 1.8965 9.18495 2.37682 9.29381 2.9109ZM12.1495 13.0001V1.00121H16.0867V13.0001H12.1495ZM19.0605 5.56422C18.6362 5.56836 18.2188 5.45735 17.8525 5.24309C17.4912 5.03424 17.1911 4.73408 16.9823 4.37272C16.7678 4.00645 16.6568 3.58888 16.661 3.16444C16.6561 2.74258 16.7672 2.3275 16.9823 1.96455C17.1933 1.60711 17.4931 1.31022 17.8525 1.10264C18.2189 0.888624 18.6362 0.777637 19.0605 0.781506C19.4822 0.776964 19.8971 0.888051 20.2602 1.10264C20.616 1.31203 20.9127 1.60868 21.122 1.96455C21.3368 2.3276 21.4479 2.74262 21.4433 3.16444C21.4473 3.58885 21.3363 4.00635 21.122 4.37272C20.9149 4.7325 20.6179 5.0324 20.2602 5.24309C19.8971 5.4581 19.4819 5.56921 19.0599 5.56422H19.0605ZM22.0516 13.0001V1.00121H25.9892V13.0001H22.0516ZM30.9737 7.55836C30.9848 7.57 31.0693 7.70801 31.2272 7.97239C31.3851 8.23678 31.5907 8.57481 31.8439 8.98641C32.0974 9.39783 32.3649 9.83438 32.6463 10.2961C32.9278 10.7579 33.1926 11.1945 33.4408 11.6059C33.6881 12.0173 33.9697 12.482 34.2857 13.0001H29.9598C29.6893 12.5607 29.4441 12.1636 29.2245 11.8087C29.0048 11.4538 28.7713 11.0707 28.5238 10.6595C28.2758 10.2486 28.0306 9.84866 27.7882 9.45959C27.5458 9.07052 27.3375 8.72974 27.1633 8.43718C26.9883 8.14444 26.8671 7.94725 26.7997 7.84566C26.6325 7.59357 26.5336 7.30242 26.5127 7.00067C26.5294 6.71106 26.6226 6.4311 26.7828 6.18923C26.8504 6.07657 26.9743 5.87655 27.1545 5.58925C27.3348 5.30196 27.546 4.96118 27.7882 4.56685C28.0304 4.17252 28.2756 3.76973 28.5238 3.3585C28.772 2.94727 29.0056 2.56136 29.2245 2.20083C29.4445 1.84067 29.6897 1.44071 29.9598 1.00094H34.2857L30.9396 6.45962C30.8361 6.62169 30.7777 6.80847 30.7706 7.00067C30.7818 7.20245 30.8522 7.39644 30.9731 7.55836H30.9737Z" fill="white"/>
<path d="M47.002 2.55433C46.7942 2.23394 46.5276 1.95583 46.2162 1.73477C45.8691 1.49167 45.4836 1.30884 45.0757 1.19402C44.5805 1.05735 44.0684 0.992018 43.5548 0.999984H38.8572V12.9975H40.6315V8.68858H43.69C44.3804 8.69927 45.0617 8.53028 45.667 8.19823C46.2473 7.877 46.7292 7.40398 47.0611 6.82981C47.417 6.19607 47.5951 5.47795 47.5765 4.75136C47.578 4.35871 47.5327 3.96728 47.4413 3.58539C47.3536 3.21954 47.2051 2.87101 47.002 2.55433ZM45.4305 6.19613C45.2033 6.55234 44.869 6.82739 44.4757 6.98187C43.9984 7.1625 43.4905 7.24859 42.9803 7.23534H40.6315V2.47041H43.2169C43.7107 2.45169 44.2022 2.5471 44.6532 2.74922C45.012 2.92258 45.3053 3.20703 45.4896 3.56033C45.6849 3.9566 45.7806 4.39449 45.7685 4.8361C45.7878 5.31239 45.6706 5.78432 45.4305 6.19613Z" fill="#FFA90A"/>
<path d="M51.184 1.39708C50.9418 1.52663 50.7053 1.64774 50.4746 1.7604C50.2438 1.87305 50.01 1.98569 49.773 2.09834C49.5366 2.21099 49.2944 2.31237 49.0464 2.40249C48.7984 2.49262 48.5338 2.58276 48.2525 2.67288L48.6239 4.10921C48.9619 4.00782 49.2689 3.90641 49.5449 3.80502C49.8152 3.70592 50.0803 3.59314 50.3391 3.46707C50.5928 3.34316 50.8462 3.20799 51.0995 3.06154L51.1082 3.05645V12.9981H52.8654V1.00052H51.9531C51.6826 1.13495 51.4262 1.26715 51.184 1.39708Z" fill="#FFA90A"/>
<path d="M62.0747 8.50242C61.9575 8.16505 61.7736 7.85473 61.534 7.58993C61.2849 7.3222 60.9828 7.10935 60.6468 6.96499C60.262 6.79924 59.855 6.69105 59.4387 6.64392V6.59294C59.944 6.43236 60.4142 6.17716 60.8243 5.84096C61.1901 5.54097 61.4918 5.17042 61.7114 4.75136C61.9189 4.34916 62.0262 3.90278 62.024 3.45021C62.0316 3.06598 61.9445 2.68578 61.7705 2.3431C61.5923 2.01184 61.3373 1.72801 61.027 1.51536C60.6661 1.26969 60.2619 1.09481 59.8357 0.999984C59.3119 0.88119 58.776 0.82448 58.2389 0.831011C57.8855 0.832185 57.5326 0.857686 57.1828 0.907333C56.8207 0.956985 56.4622 1.03038 56.1097 1.12701C55.7705 1.2188 55.442 1.34624 55.1297 1.50721L55.3662 2.84215C55.6138 2.74076 55.8532 2.65335 56.0844 2.57994C56.3155 2.50653 56.538 2.44738 56.7519 2.40251C56.9657 2.35783 57.1741 2.32412 57.3771 2.3014C57.5735 2.27923 57.7709 2.26795 57.9685 2.26761C58.326 2.26178 58.683 2.2957 59.0331 2.36872C59.2868 2.41984 59.5279 2.52043 59.7428 2.66472C59.9179 2.78813 60.0554 2.95766 60.1399 3.15448C60.2292 3.37726 60.2723 3.61583 60.2666 3.85575C60.2715 4.18544 60.193 4.511 60.0385 4.8023C59.8814 5.08939 59.662 5.33769 59.3964 5.52894C59.0969 5.74295 58.7624 5.90304 58.4078 6.00206C57.9956 6.11866 57.5688 6.17556 57.1405 6.17104H56.8195L56.6167 7.48937H57.1574C57.656 7.48248 58.1541 7.52495 58.6444 7.61613C59.0115 7.68179 59.3636 7.81347 59.6836 8.00478C59.9454 8.16423 60.1586 8.39208 60.3004 8.66379C60.4417 8.95581 60.5112 9.27732 60.5032 9.60162C60.5118 9.92963 60.4484 10.2555 60.3173 10.5564C60.1916 10.8231 59.996 11.0507 59.7512 11.2151C59.4585 11.406 59.1313 11.538 58.7881 11.6037C58.3348 11.6946 57.8731 11.7371 57.4108 11.7305C57.2419 11.7305 57.0754 11.7251 56.9123 11.7139C56.7493 11.7026 56.577 11.6857 56.397 11.6629C56.217 11.6401 56.0278 11.6099 55.8309 11.5702C55.6341 11.5305 55.4169 11.4832 55.1803 11.4263L54.9606 12.8626C55.2083 12.9077 55.4477 12.95 55.6788 12.9894C55.91 13.0288 56.1381 13.0626 56.3632 13.0908C56.5885 13.1186 56.8082 13.1382 57.0222 13.1496C57.2363 13.1611 57.4447 13.1668 57.6474 13.1668C58.1859 13.1711 58.7236 13.1229 59.2527 13.0229C59.7024 12.9392 60.1378 12.7913 60.5455 12.5838C60.9013 12.403 61.2218 12.1598 61.4917 11.8657C61.7457 11.583 61.941 11.2528 62.0662 10.894C62.2002 10.4997 62.2659 10.0854 62.2606 9.66893C62.2657 9.27233 62.2029 8.87778 62.0747 8.50242Z" fill="#FFA90A"/>
</svg>

<svg xmlns="http://www.w3.org/2000/svg" viewBox="0 0 63 14"><path fill="#fff" d="M0 13V1.001h3.937v12H0ZM9.294 2.91 11.558 13H7.25L4.545 1.001h2.417a2.276 2.276 0 0 1 1.513.55c.42.346.71.826.819 1.36ZM12.149 13V1.001h3.938v12h-3.938Zm6.912-7.436a2.382 2.382 0 0 1-2.4-2.4 2.301 2.301 0 0 1 .321-1.2 2.41 2.41 0 0 1 3.278-.861c.356.209.653.506.862.862.215.363.326.778.321 1.2a2.35 2.35 0 0 1-.321 1.208 2.4 2.4 0 0 1-.862.87 2.302 2.302 0 0 1-1.2.321ZM22.05 13V1.001h3.938v12h-3.937Zm8.923-5.442c.01.012.095.15.253.414.158.265.364.603.617 1.014a315.908 315.908 0 0 1 1.597 2.62c.247.411.529.876.845 1.394H29.96c-.27-.44-.516-.836-.736-1.191-.22-.355-.453-.738-.7-1.15-.248-.41-.493-.81-.736-1.2-.242-.388-.45-.73-.625-1.022-.175-.293-.296-.49-.363-.591A1.747 1.747 0 0 1 26.513 7c.016-.29.11-.57.27-.812.067-.112.191-.312.371-.6a182.106 182.106 0 0 0 1.37-2.23l.7-1.158.736-1.2h4.326L30.94 6.46a1.08 1.08 0 0 0-.17.54c.012.202.082.396.203.558Z"/><path fill="#FFA90A" d="M47.002 2.554a3.021 3.021 0 0 0-.786-.82 3.767 3.767 0 0 0-1.14-.54A5.402 5.402 0 0 0 43.555 1h-4.698v11.998h1.775v-4.31h3.058c.69.011 1.372-.158 1.977-.49a3.655 3.655 0 0 0 1.394-1.368 4.034 4.034 0 0 0 .516-2.079 4.928 4.928 0 0 0-.136-1.166 3.361 3.361 0 0 0-.439-1.03ZM45.43 6.196a2 2 0 0 1-.954.786c-.478.18-.986.267-1.496.253h-2.348V2.47h2.585c.494-.018.985.077 1.436.28.359.173.652.457.837.81.195.397.29.834.279 1.276a2.5 2.5 0 0 1-.338 1.36ZM51.184 1.397c-.242.13-.479.25-.71.363-.23.113-.464.226-.701.338a8.192 8.192 0 0 1-.727.304c-.248.09-.512.18-.794.27l.372 1.437c.338-.101.645-.203.92-.304.271-.1.536-.212.795-.338.254-.124.507-.259.76-.405l.01-.006v9.942h1.756V1.001h-.912c-.27.134-.527.266-.769.396ZM62.075 8.502a2.662 2.662 0 0 0-.541-.912 2.63 2.63 0 0 0-.887-.625 4.267 4.267 0 0 0-1.208-.321v-.051c.505-.16.975-.416 1.385-.752.366-.3.668-.67.887-1.09.208-.402.315-.848.313-1.3a2.343 2.343 0 0 0-.254-1.108 2.358 2.358 0 0 0-.743-.828A3.447 3.447 0 0 0 59.836 1a6.843 6.843 0 0 0-1.597-.169 8.35 8.35 0 0 0-2.13.296c-.339.092-.667.22-.98.38l.237 1.335a9.43 9.43 0 0 1 .718-.262 6.864 6.864 0 0 1 1.293-.279c.197-.022.394-.033.591-.033.358-.006.715.028 1.065.1.254.052.495.152.71.297.175.123.312.293.397.49.09.222.132.46.127.7.005.33-.074.656-.229.947a2.192 2.192 0 0 1-.642.727c-.3.214-.634.374-.988.473a4.482 4.482 0 0 1-1.267.169h-.322l-.202 1.318h.54c.499-.007.997.036 1.487.127.367.066.72.197 1.04.389.261.16.475.387.616.659.142.292.211.613.203.938.009.328-.055.653-.186.954a1.631 1.631 0 0 1-.566.66c-.292.19-.62.322-.963.388-.453.09-.915.133-1.377.127a7.284 7.284 0 0 1-1.014-.068 7.862 7.862 0 0 1-.566-.093 18.01 18.01 0 0 1-.65-.144l-.22 1.437c.247.045.487.087.718.126.231.04.46.074.684.102.226.028.445.047.66.059.213.011.422.017.624.017a8.288 8.288 0 0 0 1.606-.144c.45-.084.885-.232 1.292-.44.356-.18.677-.423.947-.717.254-.283.449-.613.574-.972.134-.394.2-.809.195-1.225a3.471 3.471 0 0 0-.186-1.167Z"/></svg>
